src/dsmComponents/Icons/log-out-12px.svg

<svg width="12" height="12" xmlns="http://www.w3.org/2000/svg" xmlns:xlink="http://www.w3.org/1999/xlink"><defs><path d="M11 0a1 1 0 011 1v10a1 1 0 01-1 1H5a1 1 0 01-1-1V8h2v2h4V2H6v2H4V1a1 1 0 011-1zM3 3v2h5v2H3v2L0 6l3-3z" id="log-out-12px_svg__a"/></defs><use fill="#737373" xlink:href="#log-out-12px_svg__a" fill-rule="evenodd"/></svg>

<?xml version="1.0" encoding="UTF-8"?>
<svg width="12px" height="12px" viewBox="0 0 12 12" version="1.1" xmlns="http://www.w3.org/2000/svg" xmlns:xlink="http://www.w3.org/1999/xlink">
    <!-- Generator: Sketch 59.1 (86144) - https://sketch.com -->
    <title>log-out-12px</title>
    <desc>Created with Sketch.</desc>
    <defs>
        <path d="M11,0 C11.5522847,0 12,0.44771525 12,1 L12,1 L12,11 C12,11.5522847 11.5522847,12 11,12 L11,12 L5,12 C4.44771525,12 4,11.5522847 4,11 L4,11 L4,8 L6,8 L6,10 L10,10 L10,2 L6,2 L6,4 L4,4 L4,1 C4,0.44771525 4.44771525,0 5,0 L5,0 Z M3,3 L3,5 L8,5 L8,7 L3,7 L3,9 L0,6 L3,3 Z" id="path-1"></path>
    </defs>
    <g id="Final" stroke="none" stroke-width="1" fill="none" fill-rule="evenodd">
        <g id="All-Nucleo-Icons" transform="translate(-174.000000, -4764.000000)">
            <g id="Solo/Nucleo/12px/log-out" transform="translate(168.000000, 4758.000000)">
                <g id="log-out" transform="translate(6.000000, 6.000000)">
                    <g id="Colour/Default-Colour">
                        <mask id="mask-2" fill="white">
                            <use xlink:href="#path-1"></use>
                        </mask>
                        <g id="Mask" fill-rule="nonzero"></g>
                        <g id="colour/neutral/chia" mask="url(#mask-2)" fill="#737373">
                            <g transform="translate(-26.000000, -26.000000)" id="Colour">
                                <rect x="0" y="0" width="64" height="64"></rect>
                            </g>
                        </g>
                    </g>
                </g>
            </g>
        </g>
    </g>
</svg>
